X:137
T:The Upgrade
M:6/8
L:1/8
C:© Paul Gitlitz 2001
R:Jig
B:Hunters and Gatherers
N:The 2nd. ending  of the B section can be repeated  instead of using  the 1st. ending, which can be saved as a final ending or to transition to another tune.
K:G
"G"G2G "(D)"FDA|"G"B2B "(D7)"AGc|"G"dBG "(Bm)"edB|"G"dBG "D"A2F|!
"G"G2G "(D)"FDA|"G"B2B "(D7)"AGc|"G"dBg "(Bm)"edB|"D"ABA "G"G3:|!
|"C"cBc e3|e=f^f g2e|"G"d2d ded|B3-B2d|!
"C"cBc e3|"Edim7"e=f^f g2e|"D"de=f ^fg^g|"D7"a6|!
"C"cBc e3|e=f^f g2e|"G"d2d ded|B3-B2d|!
"C"cBc e3|"A7"e=f^f g2e|"D"d2d de=f|"D7"f6|]
